src/img/datastax-docs-logo-small-dark-bg.svg

<svg width="162" height="40" viewBox="0 0 162 40" fill="none" xmlns="http://www.w3.org/2000/svg">
    <path d="M0 0.000106812H68V40.0001H0V0.000106812Z" fill="#090909" />
    <g clip-path="url(#clip0_1737_17509)">
        <path
            d="M29.4802 12.524H16.02V27.671H29.4802L32.8615 25.0512V15.1438L29.4802 12.524ZM18.6285 15.1438H30.253V25.0539H18.6285V15.1438Z"
            fill="white" />
        <path
            d="M52.6943 15.1438V12.524H40.2429L36.8616 15.1438V18.7413L40.2429 21.3611H51.0945V25.0539H37.534V27.671H50.3217L53.703 25.0539V21.3611L50.3217 18.7413H39.4701V15.1438H52.6943Z"
            fill="white" />
    </g>
    <path d="M69 1H160.846V38.9999H69V1Z" fill="white" stroke="#090909" stroke-width="2" />
    <path
        d="M84.3656 27.7476V26.4553H88.0395C88.9502 26.4553 89.7441 26.3076 90.421 26.0122C91.1102 25.7169 91.6887 25.3169 92.1564 24.8123C92.6241 24.2953 92.9748 23.7046 93.2087 23.0399C93.4425 22.3753 93.5595 21.6676 93.5595 20.9169C93.5595 20.1415 93.4364 19.4215 93.1902 18.7569C92.9564 18.0923 92.6056 17.5077 92.1379 17.003C91.6702 16.4984 91.0918 16.1107 90.4025 15.84C89.7256 15.5692 88.9379 15.4338 88.0395 15.4338H84.3656V14.1415H87.8918C89.0979 14.1415 90.1441 14.3261 91.0302 14.6954C91.9164 15.0646 92.6548 15.5692 93.2456 16.2092C93.8364 16.8369 94.2733 17.5446 94.5564 18.3323C94.8395 19.12 94.981 19.92 94.981 20.7323V21.083C94.981 21.883 94.8395 22.6769 94.5564 23.4646C94.2733 24.2523 93.8425 24.9723 93.2641 25.6246C92.6856 26.2646 91.9472 26.7815 91.0487 27.1753C90.1625 27.5569 89.1102 27.7476 87.8918 27.7476H84.3656ZM83.3318 27.7476V14.1415H84.7349V27.7476H83.3318Z"
        fill="#090909" />
    <path
        d="M107.238 27.9876C106.069 27.9876 105.053 27.7784 104.192 27.3599C103.33 26.9415 102.616 26.3876 102.05 25.6984C101.484 25.0092 101.06 24.2584 100.776 23.4461C100.493 22.6338 100.352 21.84 100.352 21.0646V20.7323C100.352 19.9076 100.493 19.0892 100.776 18.2769C101.072 17.4523 101.509 16.7077 102.087 16.043C102.666 15.3784 103.386 14.8492 104.247 14.4554C105.109 14.0492 106.106 13.8461 107.238 13.8461C108.383 13.8461 109.38 14.0492 110.229 14.4554C111.09 14.8492 111.81 15.3784 112.389 16.043C112.967 16.7077 113.398 17.4523 113.681 18.2769C113.976 19.0892 114.124 19.9076 114.124 20.7323V21.083C114.124 21.8584 113.983 22.6523 113.7 23.4646C113.429 24.2646 113.004 25.0092 112.426 25.6984C111.86 26.3876 111.146 26.9415 110.284 27.3599C109.423 27.7784 108.407 27.9876 107.238 27.9876ZM107.238 26.6953C108.1 26.6953 108.869 26.5415 109.546 26.2338C110.223 25.9138 110.795 25.483 111.263 24.9415C111.73 24.3876 112.087 23.7661 112.333 23.0769C112.58 22.3876 112.703 21.6676 112.703 20.9169C112.703 20.1292 112.58 19.3907 112.333 18.7015C112.087 18.0123 111.724 17.403 111.244 16.8738C110.776 16.3323 110.204 15.9077 109.527 15.6C108.85 15.2923 108.087 15.1384 107.238 15.1384C106.401 15.1384 105.644 15.2923 104.967 15.6C104.29 15.9077 103.712 16.3323 103.232 16.8738C102.764 17.403 102.401 18.0123 102.143 18.7015C101.896 19.3907 101.773 20.1292 101.773 20.9169C101.773 21.6676 101.896 22.3876 102.143 23.0769C102.389 23.7661 102.746 24.3876 103.213 24.9415C103.681 25.483 104.253 25.9138 104.93 26.2338C105.62 26.5415 106.389 26.6953 107.238 26.6953Z"
        fill="#090909" />
    <path
        d="M126.404 27.9876C125.198 27.9876 124.164 27.7784 123.303 27.3599C122.454 26.9292 121.758 26.3692 121.217 25.6799C120.688 24.9907 120.3 24.2461 120.054 23.4461C119.808 22.6338 119.684 21.8461 119.684 21.083V20.7323C119.684 19.9076 119.808 19.0892 120.054 18.2769C120.312 17.4523 120.706 16.7077 121.235 16.043C121.777 15.3784 122.466 14.8492 123.303 14.4554C124.14 14.0492 125.131 13.8461 126.275 13.8461C127.432 13.8461 128.429 14.0492 129.266 14.4554C130.115 14.8615 130.792 15.4338 131.297 16.1723C131.801 16.8984 132.109 17.76 132.22 18.7569H130.798C130.7 17.9569 130.441 17.2923 130.023 16.763C129.604 16.2215 129.069 15.8153 128.417 15.5446C127.777 15.2738 127.063 15.1384 126.275 15.1384C125.426 15.1384 124.675 15.2923 124.023 15.6C123.383 15.8953 122.848 16.3138 122.417 16.8553C121.986 17.3846 121.66 18 121.438 18.7015C121.217 19.3907 121.106 20.1292 121.106 20.9169C121.106 21.6676 121.211 22.3876 121.42 23.0769C121.641 23.7661 121.974 24.3876 122.417 24.9415C122.86 25.483 123.414 25.9138 124.078 26.2338C124.743 26.5415 125.518 26.6953 126.404 26.6953C127.635 26.6953 128.669 26.3876 129.506 25.7723C130.343 25.1446 130.86 24.2461 131.057 23.0769H132.478C132.343 23.9999 132.023 24.8369 131.518 25.5876C131.014 26.3261 130.331 26.9107 129.469 27.3415C128.62 27.7722 127.598 27.9876 126.404 27.9876Z"
        fill="#090909" />
    <path
        d="M143.402 27.9876C142.27 27.9876 141.316 27.8092 140.54 27.4522C139.765 27.083 139.174 26.5784 138.768 25.9384C138.374 25.2861 138.177 24.5538 138.177 23.7415H139.58C139.58 24.2584 139.703 24.7446 139.95 25.1999C140.208 25.643 140.614 26.0061 141.168 26.2892C141.734 26.5599 142.479 26.6953 143.402 26.6953C144.251 26.6953 144.953 26.5723 145.506 26.3261C146.073 26.0799 146.491 25.7476 146.762 25.3292C147.045 24.9107 147.186 24.443 147.186 23.9261C147.186 23.2738 146.928 22.7323 146.411 22.3015C145.906 21.8584 145.143 21.5938 144.122 21.5076L142.571 21.36C141.414 21.2615 140.491 20.9046 139.802 20.2892C139.125 19.6615 138.787 18.8369 138.787 17.8153C138.787 17.04 138.971 16.3569 139.34 15.7661C139.71 15.1754 140.233 14.7077 140.91 14.363C141.599 14.0184 142.423 13.8461 143.383 13.8461C144.356 13.8461 145.186 14.0246 145.876 14.3815C146.577 14.7261 147.113 15.2061 147.482 15.8215C147.851 16.4369 148.036 17.1507 148.036 17.963H146.633C146.633 17.4707 146.522 17.0092 146.3 16.5784C146.079 16.1477 145.728 15.803 145.248 15.5446C144.768 15.2738 144.146 15.1384 143.383 15.1384C142.657 15.1384 142.054 15.2615 141.574 15.5077C141.107 15.7538 140.756 16.08 140.522 16.4861C140.3 16.8923 140.19 17.3353 140.19 17.8153C140.19 18.4184 140.405 18.9292 140.836 19.3477C141.267 19.7661 141.888 20.0061 142.7 20.0676L144.251 20.2153C145.162 20.2892 145.937 20.4923 146.577 20.8246C147.23 21.1446 147.728 21.5692 148.073 22.0984C148.417 22.6153 148.59 23.2246 148.59 23.9261C148.59 24.7138 148.374 25.4153 147.943 26.0307C147.525 26.6461 146.928 27.1261 146.153 27.4707C145.377 27.8153 144.46 27.9876 143.402 27.9876Z"
        fill="#090909" />
    <defs>
        <clipPath id="clip0_1737_17509">
            <rect width="37.6829" height="15.1471" fill="white" transform="translate(16.02 12.524)" />
        </clipPath>
    </defs>
</svg>

<svg xmlns="http://www.w3.org/2000/svg" width="162" height="40" fill="none" viewBox="0 0 162 40">
    <path fill="#090909" d="M0 0h68v40H0V0Z" />
    <g clip-path="url(#a)">
        <g clip-path="url(#b)">
            <path fill="#fff"
                d="M29.48 12.524H16.02v15.147h13.46l3.381-2.62v-9.907l-3.38-2.62Zm-10.852 2.62h11.625v9.91H18.628v-9.91Zm34.066 0v-2.62H40.243l-3.382 2.62v3.597l3.382 2.62h10.851v3.693h-13.56v2.617h12.788l3.38-2.617V21.36l-3.38-2.62H39.47v-3.597h13.224Z" />
        </g>
    </g>
    <path fill="#fff" stroke="#090909" stroke-width="2" d="M69 1h91.846v38H69V1Z" />
    <path fill="#090909"
        d="M84.366 27.748v-1.293h3.674c.91 0 1.704-.147 2.381-.443a5.032 5.032 0 0 0 1.735-1.2 5.175 5.175 0 0 0 1.053-1.772c.233-.665.35-1.372.35-2.123a6.17 6.17 0 0 0-.369-2.16 4.983 4.983 0 0 0-1.052-1.754 4.637 4.637 0 0 0-1.736-1.163c-.676-.27-1.464-.406-2.362-.406h-3.674v-1.292h3.526c1.206 0 2.252.184 3.138.553.886.37 1.625.874 2.216 1.514a6.065 6.065 0 0 1 1.31 2.123 7.03 7.03 0 0 1 .425 2.4v.351c0 .8-.141 1.594-.425 2.382a6.6 6.6 0 0 1-1.292 2.16c-.578.64-1.317 1.157-2.215 1.55-.887.382-1.939.573-3.157.573h-3.526Zm-1.034 0V14.14h1.403v13.607h-1.403Zm23.906.24c-1.169 0-2.185-.21-3.046-.628a6.267 6.267 0 0 1-2.142-1.662 7.35 7.35 0 0 1-1.274-2.252 7.213 7.213 0 0 1-.424-2.381v-.333c0-.824.141-1.643.424-2.455a6.96 6.96 0 0 1 1.311-2.234 6.288 6.288 0 0 1 2.16-1.588c.862-.406 1.859-.609 2.991-.609 1.145 0 2.142.203 2.991.61a6.288 6.288 0 0 1 2.16 1.587 6.681 6.681 0 0 1 1.292 2.234c.295.812.443 1.63.443 2.455v.351c0 .775-.141 1.57-.424 2.382a6.913 6.913 0 0 1-1.274 2.233 6.267 6.267 0 0 1-2.142 1.662c-.861.418-1.877.628-3.046.628Zm0-1.293c.862 0 1.631-.154 2.308-.461a5.142 5.142 0 0 0 1.717-1.293 5.996 5.996 0 0 0 1.07-1.864c.247-.69.37-1.41.37-2.16 0-.788-.123-1.526-.37-2.216a5.386 5.386 0 0 0-1.089-1.827 4.937 4.937 0 0 0-1.717-1.274c-.677-.308-1.44-.462-2.289-.462-.837 0-1.594.154-2.271.462a5.12 5.12 0 0 0-1.735 1.274 5.8 5.8 0 0 0-1.089 1.828 6.518 6.518 0 0 0-.37 2.215c0 .75.123 1.47.37 2.16.246.69.603 1.31 1.07 1.864.468.542 1.04.973 1.717 1.293.69.307 1.459.461 2.308.461Zm19.166 1.293c-1.206 0-2.24-.21-3.101-.628-.849-.43-1.545-.99-2.086-1.68a7.054 7.054 0 0 1-1.163-2.234 8.139 8.139 0 0 1-.37-2.363v-.35c0-.825.124-1.644.37-2.456a6.83 6.83 0 0 1 1.181-2.234c.542-.665 1.231-1.194 2.068-1.588.837-.406 1.828-.609 2.972-.609 1.157 0 2.154.203 2.991.61a5.042 5.042 0 0 1 2.031 1.716c.504.726.812 1.588.923 2.585h-1.422c-.098-.8-.357-1.465-.775-1.994a3.866 3.866 0 0 0-1.606-1.218c-.64-.271-1.354-.407-2.142-.407-.849 0-1.6.154-2.252.462a4.353 4.353 0 0 0-1.606 1.255 5.533 5.533 0 0 0-.979 1.846 7.215 7.215 0 0 0-.332 2.216c0 .75.105 1.47.314 2.16.221.69.554 1.31.997 1.864.443.542.997.973 1.661 1.293.665.307 1.44.461 2.326.461 1.231 0 2.265-.307 3.102-.923.837-.627 1.354-1.526 1.551-2.695h1.421a5.991 5.991 0 0 1-.96 2.51c-.504.74-1.187 1.324-2.049 1.755-.849.43-1.871.646-3.065.646Zm16.998 0c-1.132 0-2.086-.179-2.862-.536-.775-.369-1.366-.874-1.772-1.514-.394-.652-.591-1.384-.591-2.197h1.403c0 .517.123 1.004.37 1.459.258.443.664.806 1.218 1.09.566.27 1.311.405 2.234.405.849 0 1.551-.123 2.104-.369.567-.246.985-.578 1.256-.997.283-.418.424-.886.424-1.403 0-.652-.258-1.194-.775-1.624-.505-.444-1.268-.708-2.289-.794l-1.551-.148c-1.157-.098-2.08-.455-2.769-1.07-.677-.628-1.015-1.453-1.015-2.475 0-.775.184-1.458.553-2.049.37-.59.893-1.058 1.57-1.403.689-.345 1.513-.517 2.473-.517.973 0 1.803.179 2.493.536.701.344 1.237.824 1.606 1.44.369.615.554 1.329.554 2.141h-1.403a2.98 2.98 0 0 0-.333-1.385c-.221-.43-.572-.775-1.052-1.033-.48-.271-1.102-.407-1.865-.407-.726 0-1.329.123-1.809.37-.467.246-.818.572-1.052.978-.222.406-.332.85-.332 1.33 0 .602.215 1.113.646 1.532.431.418 1.052.658 1.864.72l1.551.147c.911.074 1.686.277 2.326.61.653.32 1.151.744 1.496 1.273.344.517.517 1.127.517 1.828a3.58 3.58 0 0 1-.647 2.105c-.418.615-1.015 1.095-1.79 1.44-.776.344-1.693.517-2.751.517Z" />
    <defs>
        <clipPath id="a">
            <path fill="#fff" d="M16 12h38v16H16z" />
        </clipPath>
        <clipPath id="b">
            <path fill="#fff" d="M16.02 12.524h37.683v15.147H16.02z" />
        </clipPath>
    </defs>
</svg>
